X: 196
T: Nianqing de pengyou
%%abc-version 2.0
%%abcx-abcm2ps-target-version 5.9.1 (29 Sep 2008)
%%abc-creator hum2abc beta
%%abcx-conversion-date 2013/10/02 07:44:28
%%abc-edited-by Helmut Schaffrath
%%humdrum-veritas 3210087906
%%humdrum-veritas-data 2495721957
%%continueall 1
%%barnumbers 0
L: 1/16
M: 2/4
K: G
d d d2 d B A B [I:setbarnb 1]| 
d4e d d2 | 
B4B> A A2 | 
G8- | 
G8 | 
A2 A2 d2 e2 | 
d4B d B A | 
d4B> A B G | 
A4d A B2 | 
G2 A2 G E E2 | 
D8- | 
D8 | 
A2 A2 B2 B A | 
G6A B | 
A B d2 e d d2 | 
B d B AB4 | 
d2 d2 A2 B A | 
G4G> E E A | 
G4G G z2 | 
D2> E2 A2 d2 | 
B4B> A A2 | 
G8- | 
G8 |]  



